assets/sonr-icons/receipt.svg

<svg xmlns="http://www.w3.org/2000/svg" width="24" height="24" fill="none" viewBox="0 0 24 24"><path fill="#000" stroke="#000" stroke-width="1" d="M8.29998 21.15C8.12198 21.284 7.87798 21.284 7.69998 21.15L5.98398 19.863L4.32098 21.249C3.99598 21.52 3.50098 21.289 3.50098 20.865V3.135C3.50098 2.711 3.99498 2.48 4.32098 2.751L5.98398 4.137L7.69998 2.85C7.87798 2.717 8.12198 2.717 8.29998 2.85L9.99998 4.125L11.7 2.85C11.878 2.717 12.122 2.717 12.3 2.85L14 4.125L15.7 2.85C15.878 2.717 16.122 2.717 16.3 2.85L18.016 4.137L19.679 2.751C20.005 2.479 20.499 2.711 20.499 3.135V20.865C20.499 21.289 20.005 21.52 19.679 21.249L18.016 19.863L16.3 21.15C16.122 21.284 15.878 21.284 15.7 21.15L14 19.875L12.3 21.15C12.122 21.284 11.878 21.284 11.7 21.15L9.99998 19.875L8.29998 21.15ZM7.99998 8.5C7.17098 8.5 6.49998 9.171 6.49998 10C6.49998 10.829 7.17098 11.5 7.99998 11.5H16C16.829 11.5 17.5 10.829 17.5 10C17.5 9.171 16.829 8.5 16 8.5H7.99998ZM7.99998 12.5C7.17098 12.5 6.49998 13.171 6.49998 14C6.49998 14.829 7.17098 15.5 7.99998 15.5H12C12.829 15.5 13.5 14.829 13.5 14C13.5 13.171 12.829 12.5 12 12.5H7.99998Z"/></svg>

<svg xmlns="http://www.w3.org/2000/svg" width="24" height="24" fill="none"><path fill="currentColor" stroke="#000" d="M8.3 21.15a.5.5 0 0 1-.6 0l-1.716-1.287-1.663 1.386a.5.5 0 0 1-.82-.384V3.135a.5.5 0 0 1 .82-.384l1.663 1.386L7.7 2.85a.5.5 0 0 1 .6 0L10 4.125l1.7-1.275a.5.5 0 0 1 .6 0L14 4.125l1.7-1.275a.5.5 0 0 1 .6 0l1.716 1.287 1.663-1.386a.5.5 0 0 1 .82.384v17.73a.5.5 0 0 1-.82.384l-1.663-1.386L16.3 21.15a.5.5 0 0 1-.6 0L14 19.875l-1.7 1.275a.5.5 0 0 1-.6 0L10 19.875zM8 8.5a1.5 1.5 0 1 0 0 3h8a1.5 1.5 0 1 0 0-3zm0 4a1.5 1.5 0 1 0 0 3h4a1.5 1.5 0 1 0 0-3z"/></svg>
